X: 5
T: Helsinge polska
R: Bingsj\"o-polska
O: efter W.Hedlund, Enviken
M: 3/4
L: 1/16
K: Gm
|: "Gm"G,2B,D G2DG "D7"B2A2 | "D7"D2^FA c2=Bc "Gm"e2d2 \
| "Gm"d-edB "D"c2A2 "Gm"B2G2 | "D"^F-GAF "Gm"G2GD "(D7)"B,2A,2 |
| "Gm"G,2B,D G2DG "D7"B2A2 | "D7"D2^FA c2=Bc "Gm"e2d2 \
| "Gm"d-edB "D"c2A2 "Gm"B2G2 | "D"^F-GAF "Gm"G4- G4 :| [K:G]
|: "G"d2ef g2gd B2G2 | "Am"A-Bcd e2ec A3G \
| "D"F-GAB c2cA F3D | "G"GFGA B2BG "(D7)"D4 |
| "G"d2ef g2gd B2G2 | "Am"A-Bcd e2ec A3G \
| "D7"F-GAB c-def "G"f-gdc | "D7"B2AG F-GAF "G"G4 :|
%%sep 1 1 500
